!!!COM: Hindemith, Paul
!!!OTL: Sonata for Oboe and Piano
!!!OMV: I: Munter (Blithely)
!!!example: 647
!!!work: Hin-63
**kern	**kern	**dynam	**kern	**dynam
*part2	*part2	*part2	*part1	*part1
*staff3	*staff2	*	*staff1	*
*I"Piano	*	*	*I"Oboe	*
*I'Pno.	*	*	*I'Ob.	*
*clefF4	*clefG2	*	*clefG2	*
*k[]	*k[]	*	*k[]	*
*C:	*C:	*	*C:	*
*M2/4	*M2/4	*	*M2/4	*
*MM121	*MM121	*	*MM121	*
=1	=1	=1	=1	=1
8G	8r	mf	4g	f
8r	8d 8g	.	.	.
8r	8d 8g	.	8gL	.
8F	8r	.	8aJ	.
=2	=2	=2	=2	=2
8r	8cL 8g	.	4b-X	.
8r	8cJ 8g	.	.	.
8E-X	8r	.	8r	.
8r	8B-X 8g	.	(16b-LL	.
.	.	.	16ccJJ	.
=3	=3	=3	=3	=3
8r	8B-X 8g	.	8cc#XL)	.
8D	8r	.	8aJ	.
8r	8AL 8g	.	8eL	.
8r	8AJ 8g	.	8fnJ	.
=4	=4	=4	=4	=4
8C#X	8r	.	(4ff#X~	<
8r	8fn 8a	.	.	.
8r	8f#X 8a#X	.	4ee~	.
8F#X	8r	.	.	.
=5	=5	=5	=5	=5
8r	8f#XL 8a#X	.	8ee-X)	.
8r	8gJ 8b	.	8r	[
8Fn	8r	.	4aa-X	.
8r	8a-X 8ccn	.	.	.
=6	=6	=6	=6	=6
8r	8a-X 8ccn	.	(16ggLL	.
.	.	.	16ff#X)	.
8E	8r	.	(16gg	.
.	.	.	16ff#JJ)	.
8r	8B#XL 8d#X	.	[4b	.
8r	8c#XJ 8e	.	.	.
=7	=7	=7	=7	=7
8A	8r	.	8b]	.
8r	8c#X 8en	.	8r	.
8r	8d 8fn	.	4ee	.
8A-X	8r	.	.	.
=8	=8	=8	=8	=8
8r	8dL 8f	.	(16ee-XLL	.
.	.	.	16dd)	.
8r	8e-XJ 8g-X	.	(16ee-	.
.	.	.	16ddJJ)	.
8Gn	8r	.	[4g	.
8r	8d 8gn	.	.	.
=9	=9	=9	=9	=9
8r	8d 8g	.	8gL]	.
8r	8r	.	(8d#X^J	.
8r	8r	.	8eL)	.
8D	8A 8a	>	8fnJ	.
=10	=10	=10	=10	=10
4r	4r	.	(8b-X^L	.
.	.	.	8aJ)	>
8D-X	8A-X 8a-X	.	8a-XL	.
8r	8r	.	(8dd-X^J	.
=11	=11	=11	=11	=11
8r	8r	.	8ccL)	.
8En	8Bn 8g	.	8bnJ	.
4r	4r	]	8eeL	.
.	.	.	8gg#XJ	]
*clefG2	*	*	*	*
=12	=12	=12	=12	=12
8f	8r	p	4aa	mf
8r	(16aLL 16cc	.	.	.
.	16ddJJ)	.	.	.
8r	8a 8cc	.	8ffnL	.
8e	8r	.	8eeJ	.
=13	=13	=13	=13	=13
8r	(16aLL 16b	.	4bb	.
.	16ccJ)	.	.	.
8r	8aJ 8b	<	.	.
8d	8r	.	8r	.
8r	(16gLL 16ee	.	(16aaLL	<
.	16ffJJ)	.	16bbJJ	.
=14	=14	=14	=14	=14
*M3/8	*M3/8	*	*M3/8	*
8r	8g 8ee	[ >	8cccL)	[ >
8c	8r	.	8gg	.
8r	8r	]	8ff#XJ	]
=15	=15	=15	=15	=15
*M2/4	*M2/4	*	*M2/4	*
8f	8r	.	4aa	.
8r	(16aLL 16cc	.	.	.
.	16ddJJ)	.	.	.
8r	8a 8cc	.	8ffnL	.
8e	8r	.	8eeJ	.
=16	=16	=16	=16	=16
8r	(16aLL 16b	<	4bb	<
.	16ccJ)	.	.	.
8r	8aJ 8b	.	.	.
8d	8r	.	8r	.
8r	(16gLL 16ee	[	(16aaLL	.
.	16ffJJ)	.	16bbJJ	.
=17	=17	=17	=17	=17
*M3/8	*M3/8	*	*M3/8	*
8r	8g 8ee	>	8cccL)	[
8c	8r	.	8gg	>
8r	8r	]	8ff#XJ	]]
=	=	=	=	=
*-	*-	*-	*-	*-
!!!system-decoration: s1{(s2,s3)}
!!!CDT: 1895/11/16-1963/12/28
!!!CBL: Hanau, Germany
!!!CDL: Frankfurt, Germany
!!!CNT: German
!!!AGN: Instrumental; Chamber
!!!MCN:
!!!MDT: 1938/07/20
!!!MGN:
!!!MLC: London, United Kingdom
!!!MPD: 1938
!!!MPN: Cohen, Harriet; Goossens, Leon
!!!ODT: 1938
!!!PDT: 1939
!!!excerpt-start-measure: 1
!!!excerpt-end-measure: 17
!!!excerpt-start-time: 0:00
!!!excerpt-end-time: 0:18
!!!EEV: 2020/01/22
!!!ONB: Converted from MusicXML on 2020/01/22
